layouts/icon-pack/spell_meteor.svg

<?xml version="1.0" encoding="UTF-8"?>
<svg width="1200pt" height="1200pt" version="1.1" viewBox="0 0 1200 1200" xmlns="http://www.w3.org/2000/svg">
 <g fill="#fff">
  <path d="m367.1 307.24c0.34375 2.1641 1.082 4.2461 2.1797 6.1406l0.44531 0.89063c1.0273 1.6562 2.1875 3.2227 3.4688 4.6875l1.0547 0.82031c1.5664 1.5195 3.2695 2.8945 5.0859 4.1016l4.4062 1.8984 4.9219 0.67969c3.6367-0.082032 7.168-1.2227 10.172-3.2773 3-2.0547 5.3359-4.9414 6.7266-8.3008 0.80469-1.4336 1.2344-3.043 1.2422-4.6875 0.55859-2.4922 0.44531-5.0898-0.32813-7.5234-1.4648-6.5547-5.625-12.191-11.461-15.516-2.8516-1.6562-6.0781-2.5586-9.375-2.625-1.0469 0.003906-2.0898 0.10547-3.1172 0.30469h-0.84375c-3.7031 0.38281-7.1562 2.0391-9.7734 4.6875-3.1523 3.3164-4.9297 7.707-4.9688 12.281v0.42187c-0.20312 1.6719-0.14844 3.3633 0.16406 5.0156z"/>
  <path d="m642.56 183.84c12.844 11.555 26.086 24.398 43.195 27.703 15.328 2.9531 24.633-11.203 18.891-25.055-6.4453-15.492-20.602-26.812-32.812-37.898-11.32-10.242-32.625-27.07-45.586-9.9609-11.812 15.586 4.8984 34.922 16.312 45.211z"/>
  <path d="m835.29 172.71c16.406 24.328 31.898 49.219 47.836 73.805 28.125 43.406 64.078 106.08 118.55 116.86s100.52-32.203 87.188-88.875c-12.094-51.305-60.562-94.195-104.65-117.68-14.062-7.5-30.258 7.5469-25.594 20.789 0.30469 2.1055 0.30469 4.2461 0 6.3516-1.2422 5.3906-6.7266 8.7422-11.555 10.594-3.3789 1.2383-6.9297 1.9414-10.523 2.0859-6.1641-1.1797-12.246-2.7461-18.211-4.6875-5.9766-6.375-12.07-12.586-18.188-18.586-15.469-15.141-31.688-31.594-48.984-46.406-14.672-19.336-30.609-37.5-48.82-51.562-12.68-9.7031-28.5 8.8359-21.094 21.422 15.633 26.508 36.867 50.297 54.047 75.891z"/>
  <path d="m925.38 133.78c1.4219 0.31641 2.8828 0.41797 4.3359 0.30469l1.5234 0.21094c1.8672 0.085937 3.7227-0.33594 5.3672-1.2188 2.8047-1.1211 5.1406-3.1641 6.6328-5.7891 1.1445-2.2266 1.793-4.6719 1.8984-7.1719 0.015625-3.7305-1.4531-7.3125-4.0781-9.9609l-3.2578-2.6484c-0.58594-0.46875-1.1719-0.91406-1.7812-1.3359l-1.3594-1.0781c-1.6172-1.0586-3.4844-1.6641-5.4141-1.7578-3.2344-0.54688-6.5586 0.074218-9.375 1.7578-2.1055 1.3828-3.8906 3.207-5.2266 5.3438-1.9102 3.5-2.4336 7.5898-1.4766 11.461 0.65234 2.957 2.1602 5.6562 4.3281 7.7656 2.1719 2.1133 4.9102 3.543 7.8828 4.1172z"/>
  <path d="m428.77 747.09c-3.9492-5.0273-8.4219-9.625-13.336-13.711-7.8984-7.0312-20.578-8.5078-28.242 0-7.6641 8.5078-7.1719 20.062 0 28.805 1.125 1.3594 2.3438 2.6719 3.5625 3.9375 5.6719 6.6797 11.461 14.672 19.688 16.641 1.418 0.75 2.9336 1.3008 4.5 1.6406 7.8516 1.5703 17.438-2.1797 19.242-11.133 0.30078-1.543 0.44922-3.1133 0.44531-4.6875 1.2617-3.7617 1.3789-7.8086 0.33594-11.637-1.043-3.8281-3.1992-7.2578-6.1953-9.8555z"/>
  <path d="m241.95 936.52c-52.938-28.062-101.32-63.98-143.51-106.52-15.82-16.172-39.516 8.2734-24.492 24.984l2.1797 2.3438c10.828 23.93 25.688 46.594 39.094 68.766 14.859 24.625 30.562 48.648 47.109 72.07 28.43 40.195 60.938 96.234 111.73 108.84 46.758 11.602 94.875-28.125 75-78.305-18.258-46.031-66.586-70.477-107.11-92.18z"/>
  <path d="m665.39 977.58c-18.75-37.992-49.992-66.727-84.07-89.836-17.812-12.094-31.266-21.281-48.445-34.312-12.938-9.7969-40.547-32.367-66.516-33.727-10.617-0.5625-20.672 13.406-13.594 24.164 2.3086 3.4453 3.3008 7.6055 2.7969 11.723-0.50391 4.1172-2.4688 7.918-5.5391 10.707-2.4844 2.3438-6.5625 3.0703-11.039 2.9766-17.227-3.3516-32.203-19.547-43.336-31.734-27.68-30.281-52.125-61.758-83.18-88.734-30.469-26.625-63.164-50.742-95.32-75.375-16.031-12.281-31.688-25.078-47.367-37.828-16.102-13.125-30.469-28.688-47.578-40.289-3-2.2812-7.1406-2.3281-10.195-0.11719-8.2266 0.65625-15.656 7.4297-12.633 17.203 8.1562 26.461 33.375 47.953 50.859 68.484 19.312 22.688 38.531 45.469 58.125 67.969 39.023 44.672 77.812 89.742 112.9 137.74 31.289 42.773 59.531 87.773 92.039 129.63 31.359 40.406 68.977 83.32 117.19 102.3 23.82 9.1133 49.754 11.188 74.719 5.9766 12.723-2.6328 24.98-7.1406 36.375-13.383 13.379-7.0312 24.238-18.047 31.078-31.523 7.9922-14.719 15.305-56.391-7.2656-102.02zm-66.703 82.406c-66.773 24.023-113.27-59.766-123.23-73.078-6.0703-8.1328-13.406-25.477-16.266-35.156-1.9766-3.4297-2.2773-7.5703-0.82031-11.25 0.21484-1.3516 0.82812-2.6055 1.7578-3.6094 0.37891-2.2773 2.1914-4.043 4.4766-4.3594 6.0469-4.4062 14.625-5.3672 20.367 1.1953 1.3828 1.5938 2.8594 3.2812 4.4062 5.0156 13.281 15.387 31.367 25.84 51.328 29.672h0.46875c18.445 3.2578 37.219 5.2266 53.016 16.406 23.836 17.062 36.094 63.797 4.5 75.164z"/>
  <path d="m1027.2 764.39c-41.695-34.336-88.734-54.023-133.59-81.844-52.547-32.625-97.852-76.289-142.78-118.69-1.9023-1.8398-4.2148-3.1992-6.75-3.9609-13.875-12.844-30.164-23.906-43.43-33.938s-31.875 9.6797-22.828 23.297c10.312 15.586 22.359 31.102 30.586 47.953 9.6797 19.781-5.4609 26.062-22.688 20.18-32.32-11.062-58.992-40.43-81.211-65.625-25.406-28.688-49.617-58.594-74.297-87.867-13.336-15.844-26.977-31.359-40.805-46.875l-3.2109-3.5859c-9.375-16.781-23.438-31.406-39.023-36.914-13.5-4.6875-22.711 11.953-16.992 22.57 5.4375 11.344 50.086 61.547 14.484 63.68-0.82422 0.042968-1.6484 0.13672-2.4609 0.28125-11.719-5.8594-24.609-17.766-29.156-21.75-9.0977-8.0742-17.707-16.684-25.781-25.781-6.2812-7.4766-84.117-99.984-99.703-118.22-20.273-23.719-40.266-47.766-60.938-71.062-21.234-23.555-41.508-49.805-64.945-71.156-17.039-15.445-47.062 4.6875-33.188 26.109 14.906 23.18 34.055 44.039 51.305 65.484 16.875 21.094 34.148 41.625 51.562 62.25 36.172 42.953 72.359 85.922 108.56 128.91 35.547 42.047 71.016 84.172 106.41 126.38 16.945 20.227 33.891 40.547 52.898 58.828 17.953 17.25 37.828 32.203 57.234 47.695 17.695 14.129 34.672 29.141 50.859 44.977 2.3203 5.3086 1.957 11.41-0.98438 16.406-5.9531 9.6328-22.711 1.2656-31.312-0.28125-11.719-2.1094-22.102-1.5234-29.203 9.1406-2.2539 4.0312-1.6172 9.0586 1.5703 12.398 3.2109 3.207 7.1289 5.6133 11.438 7.0312 17.766 15.164 35.156 29.016 49.945 47.93 18.258 23.438 32.414 49.805 47.531 75.422 26.531 45 57.141 86.836 97.008 120.52 37.266 31.5 80.438 56.438 127.78 67.969 24.328 5.9297 50.25 9.0938 75.234 6.7031 12.242-0.94531 24.289-3.6055 35.789-7.8984 40.477-15.984 66.469-38.695 82.758-76.734 28.523-66.844 25.547-169.62-47.672-229.92zm-215.32-79.57c9.375 2.0391 17.555 9.1875 25.5 14.414 9.0703 5.9531 19.266 11.367 22.102 22.734 2.8359 11.367-5.3672 20.508-16.195 21.703s-19.242-7.2656-27.352-13.312c-8.1094-6.0469-17.438-11.719-23.016-20.391-8.4609-13.266 5.5078-28.125 18.961-25.148zm189.26 226.9c-1.1992 14.242-5.9805 27.945-13.898 39.844-20.461 30.094-65.484 35.367-86.156 29.32-50.789-14.859-80.039-61.945-107.41-104.27-16.008-24.75-32.344-49.219-48.047-74.25-5.1094-8.1328-11.719-17.812-14.273-27.211-2.3164-6.3398-2.9297-13.176-1.7812-19.828 1.1719-6.4688 7.1484-10.805 13.195-12.07 6.6562-3.9219 14.824-4.2812 21.797-0.96094 26.625 11.531 44.18 36.516 69.797 49.898 24.398 12.773 93.633 16.945 138.28 56.883 17.461 15.773 29.883 38.977 28.5 62.648z"/>
  <path d="m1124.6 523.97c-19.875-50.062-73.453-69.398-121.17-79.828-28.922-6.3281-58.828-11.344-84.375-27.305-25.992-16.195-46.875-40.5-68.297-62.273s-42.492-45.188-66.586-64.406c-22.617-18-47.273-28.312-75-34.805-34.008-7.9219-64.148-16.125-91.617-39.258-15.562-13.078-28.57-28.711-42.188-43.688-4.7383-6.6719-10.098-12.879-16.008-18.539-8.1328-8.3672-15.609-18.469-28.125-18.281-7.5664 0.21484-13.605 6.3789-13.664 13.945-0.65625 9.7266 5.3203 16.992 11.555 23.742 7.0312 13.312 18.117 25.57 26.555 36.961l37.828 51c21.094 28.406 40.031 62.555 74.695 74.836 35.156 12.469 75 9.0938 104.72 35.812 12.234 10.969 22.969 27.961 21.094 45.305-1.1016 10.266-10.477 18.961-19.148 16.008l-9.375-8.6484c-11.461-10.617-30.469 2.8828-22.008 17.32 1.9766 3.3789 4.3789 6.4883 7.1484 9.2578 7.1953 13.664 18.586 25.242 28.617 36.516 14.25 16.031 28.406 32.133 42.984 47.859 29.227 31.523 57.258 65.25 89.062 94.148 25.898 23.438 57.984 43.477 93.891 42.188 31.828-1.1719 79.336-16.875 97.43-46.172 9.5156-8.6719 16.734-21.703 21.094-32.531 9.1992-22.078 9.5156-46.855 0.89062-69.164zm-98.062 64.734c-3.4961 3.5273-7.6875 6.2969-12.305 8.1328-14.18 9.1406-36.727 5.6719-52.734-3.6562-27.398-15.914-46.875-46.477-63.445-72.914-7.6875-12.234 5.1797-30.281 19.055-25.266 30.961 11.156 65.977 13.805 95.789 28.125 24.352 11.859 34.734 44.836 13.641 65.578z"/>
 </g>
</svg>

<?xml version="1.0" encoding="UTF-8" standalone="no"?>
<!DOCTYPE svg PUBLIC "-//W3C//DTD SVG 1.1//EN" "http://www.w3.org/Graphics/SVG/1.1/DTD/svg11.dtd">
<svg width="100%" height="100%" viewBox="0 0 512 509" version="1.1" xmlns="http://www.w3.org/2000/svg" xmlns:xlink="http://www.w3.org/1999/xlink" xml:space="preserve" xmlns:serif="http://www.serif.com/" style="fill-rule:evenodd;clip-rule:evenodd;stroke-linejoin:round;stroke-miterlimit:2;">
    <g transform="matrix(1,0,0,1,-69.1566,-72.6908)">
        <g transform="matrix(0.482249,0,0,0.482249,35.8059,37.6358)">
            <path d="M367.1,307.24C367.444,309.404 368.182,311.486 369.28,313.381L369.725,314.271C370.752,315.927 371.913,317.494 373.194,318.959L374.249,319.779C375.815,321.299 377.518,322.674 379.334,323.881L383.741,325.779L388.663,326.459C392.299,326.377 395.831,325.236 398.835,323.181C401.835,321.127 404.17,318.24 405.561,314.881C406.366,313.447 406.796,311.838 406.803,310.193C407.362,307.701 407.249,305.103 406.475,302.67C405.01,296.115 400.85,290.479 395.014,287.154C392.163,285.498 388.936,284.595 385.639,284.529C384.592,284.533 383.549,284.634 382.522,284.833L381.678,284.833C377.975,285.216 374.522,286.873 371.905,289.521C368.753,292.837 366.975,297.228 366.936,301.802L366.936,302.224C366.733,303.896 366.788,305.587 367.1,307.239L367.1,307.24Z" style="fill:white;fill-rule:nonzero;"/>
            <path d="M642.56,183.84C655.404,195.395 668.646,208.238 685.755,211.543C701.083,214.496 710.388,200.34 704.646,186.488C698.201,170.996 684.044,159.676 671.834,148.59C660.514,138.348 639.209,121.52 626.248,138.629C614.436,154.215 631.146,173.551 642.56,183.84L642.56,183.84Z" style="fill:white;fill-rule:nonzero;"/>
            <path d="M835.29,172.71C851.696,197.038 867.188,221.929 883.126,246.515C911.251,289.921 947.204,352.595 1001.68,363.375C1056.15,374.155 1102.2,331.172 1088.86,274.5C1076.77,223.195 1028.3,180.305 984.214,156.82C970.152,149.32 953.956,164.367 958.62,177.609C958.925,179.714 958.925,181.855 958.62,183.961C957.378,189.351 951.893,192.703 947.065,194.555C943.686,195.793 940.135,196.496 936.542,196.64C930.378,195.461 924.296,193.894 918.331,191.953C912.354,185.578 906.261,179.367 900.143,173.367C884.674,158.226 868.455,141.773 851.159,126.961C836.487,107.625 820.55,89.461 802.339,75.399C789.659,65.696 773.839,84.235 781.245,96.821C796.878,123.329 818.112,147.118 835.292,172.712L835.29,172.71Z" style="fill:white;fill-rule:nonzero;"/>
            <path d="M925.38,133.78C926.802,134.096 928.263,134.198 929.716,134.085L931.239,134.296C933.107,134.382 934.962,133.96 936.607,133.077C939.411,131.956 941.747,129.913 943.239,127.288C944.384,125.061 945.032,122.616 945.138,120.116C945.153,116.385 943.685,112.803 941.06,110.155L937.802,107.507C937.216,107.038 936.63,106.592 936.021,106.171L934.661,105.093C933.044,104.034 931.177,103.428 929.247,103.335C926.013,102.788 922.689,103.409 919.872,105.093C917.767,106.475 915.982,108.3 914.646,110.436C912.735,113.936 912.212,118.026 913.169,121.897C913.821,124.854 915.329,127.554 917.497,129.663C919.669,131.776 922.407,133.206 925.38,133.78L925.38,133.78Z" style="fill:white;fill-rule:nonzero;"/>
            <path d="M428.77,747.09C424.821,742.063 420.348,737.465 415.434,733.379C407.536,726.348 394.856,724.871 387.192,733.379C379.528,741.887 380.02,753.441 387.192,762.184C388.317,763.543 389.536,764.856 390.754,766.122C396.426,772.801 402.215,780.794 410.442,782.762C411.86,783.512 413.376,784.063 414.942,784.403C422.794,785.973 432.38,782.223 434.184,773.27C434.485,771.727 434.634,770.157 434.63,768.583C435.892,764.821 436.009,760.774 434.966,756.946C433.923,753.117 431.767,749.688 428.77,747.09L428.77,747.09Z" style="fill:white;fill-rule:nonzero;"/>
            <path d="M241.95,936.52C189.012,908.458 140.63,872.54 98.44,830C82.62,813.828 58.924,838.273 73.948,854.984L76.128,857.328C86.956,881.258 101.816,903.922 115.222,926.094C130.081,950.719 145.784,974.742 162.331,998.164C190.761,1038.36 223.269,1094.4 274.061,1107C320.819,1118.61 368.936,1078.88 349.061,1028.7C330.803,982.668 282.475,958.222 241.951,936.519L241.95,936.52Z" style="fill:white;fill-rule:nonzero;"/>
            <path d="M665.39,977.58C646.64,939.588 615.398,910.853 581.32,887.744C563.508,875.65 550.054,866.463 532.875,853.432C519.937,843.635 492.328,821.065 466.359,819.705C455.742,819.143 445.687,833.111 452.765,843.869C455.074,847.314 456.066,851.475 455.562,855.592C455.058,859.709 453.093,863.51 450.023,866.299C447.538,868.643 443.46,869.369 438.984,869.276C421.757,865.924 406.781,849.729 395.648,837.542C367.968,807.261 343.523,775.784 312.468,748.808C281.999,722.183 249.304,698.066 217.148,673.433C201.117,661.152 185.46,648.355 169.781,635.605C153.679,622.48 139.312,606.917 122.203,595.316C119.203,593.034 115.062,592.988 112.008,595.198C103.781,595.855 96.352,602.628 99.375,612.401C107.531,638.862 132.75,660.354 150.234,680.885C169.546,703.573 188.765,726.354 208.359,748.854C247.382,793.526 286.171,838.596 321.259,886.594C352.548,929.367 380.79,974.367 413.298,1016.22C444.657,1056.63 482.275,1099.54 530.488,1118.52C554.308,1127.64 580.242,1129.71 605.207,1124.5C617.93,1121.87 630.187,1117.36 641.582,1111.12C654.961,1104.09 665.82,1093.07 672.66,1079.6C680.652,1064.88 687.965,1023.2 665.394,977.575L665.39,977.58ZM598.687,1059.99C531.914,1084.01 485.417,1000.22 475.457,986.908C469.387,978.775 462.051,961.431 459.191,951.752C457.214,948.322 456.914,944.182 458.371,940.502C458.586,939.15 459.199,937.897 460.128,936.893C460.507,934.615 462.32,932.85 464.605,932.533C470.652,928.127 479.23,927.166 484.972,933.729C486.355,935.322 487.831,937.01 489.378,938.744C502.659,954.131 520.745,964.584 540.706,968.416L541.175,968.416C559.62,971.674 578.394,973.643 594.191,984.822C618.027,1001.88 630.285,1048.62 598.691,1059.99L598.687,1059.99Z" style="fill:white;fill-rule:nonzero;"/>
            <path d="M1027.2,764.39C985.505,730.054 938.466,710.367 893.61,682.546C841.063,649.921 795.758,606.257 750.83,563.856C748.928,562.016 746.615,560.657 744.08,559.895C730.205,547.051 713.916,535.989 700.65,525.957C687.384,515.925 668.775,535.637 677.822,549.254C688.134,564.84 700.181,580.356 708.408,597.207C718.088,616.988 702.947,623.269 685.72,617.387C653.4,606.325 626.728,576.957 604.509,551.762C579.103,523.074 554.892,493.168 530.212,463.895C516.876,448.051 503.235,432.536 489.407,417.02L486.196,413.434C476.821,396.653 462.758,382.028 447.173,376.52C433.673,371.833 424.462,388.473 430.181,399.09C435.619,410.434 480.267,460.637 444.665,462.77C443.841,462.813 443.017,462.907 442.204,463.051C430.485,457.192 417.595,445.285 413.048,441.301C403.951,433.227 395.341,424.617 387.267,415.52C380.986,408.044 303.15,315.536 287.564,297.3C267.291,273.581 247.298,249.534 226.626,226.238C205.392,202.683 185.118,176.433 161.681,155.082C144.642,139.637 114.619,159.77 128.493,181.191C143.399,204.371 162.548,225.23 179.798,246.675C196.673,267.769 213.946,288.3 231.36,308.925C267.532,351.878 303.719,394.847 339.92,437.835C375.467,479.882 410.936,522.007 446.33,564.215C463.275,584.442 480.221,604.762 499.228,623.043C517.181,640.293 537.056,655.246 556.462,670.738C574.157,684.867 591.134,699.879 607.321,715.715C609.642,721.024 609.278,727.125 606.337,732.121C600.384,741.754 583.626,733.387 575.025,731.84C563.306,729.731 552.923,730.317 545.822,740.981C543.568,745.012 544.205,750.039 547.392,753.379C550.603,756.586 554.521,758.992 558.83,760.41C576.596,775.574 593.986,789.426 608.775,808.34C627.033,831.778 641.189,858.145 656.306,883.762C682.837,928.762 713.447,970.598 753.314,1004.28C790.58,1035.78 833.752,1060.72 881.094,1072.25C905.422,1078.18 931.344,1081.35 956.328,1078.95C968.57,1078.01 980.617,1075.35 992.117,1071.06C1032.59,1055.07 1058.59,1032.36 1074.88,994.322C1103.4,927.478 1100.42,824.702 1027.2,764.402L1027.2,764.39ZM811.88,684.82C821.255,686.859 829.435,694.007 837.38,699.234C846.45,705.187 856.646,710.601 859.482,721.968C862.318,733.335 854.115,742.476 843.287,743.671C832.459,744.866 824.045,736.405 815.935,730.359C807.826,724.312 798.497,718.64 792.919,709.968C784.458,696.702 798.427,681.843 811.88,684.82ZM1001.14,911.72C999.941,925.962 995.16,939.665 987.242,951.564C966.781,981.658 921.758,986.931 901.086,980.884C850.297,966.025 821.047,918.939 793.676,876.614C777.668,851.864 761.332,827.395 745.629,802.364C740.52,794.231 733.91,784.552 731.356,775.153C729.04,768.813 728.426,761.977 729.575,755.325C730.747,748.856 736.723,744.52 742.77,743.255C749.426,739.333 757.594,738.974 764.567,742.294C791.192,753.825 808.747,778.81 834.364,792.192C858.762,804.965 927.997,809.137 972.644,849.075C990.105,864.848 1002.53,888.052 1001.14,911.723L1001.14,911.72Z" style="fill:white;fill-rule:nonzero;"/>
            <path d="M1124.6,523.97C1104.73,473.908 1051.15,454.572 1003.43,444.142C974.508,437.814 944.602,432.798 919.055,416.837C893.063,400.642 872.18,376.337 850.758,354.564C829.336,332.791 808.266,309.376 784.172,290.158C761.555,272.158 736.899,261.846 709.172,255.353C675.164,247.431 645.024,239.228 617.555,216.095C601.993,203.017 588.985,187.384 575.367,172.407C570.629,165.735 565.269,159.528 559.359,153.868C551.226,145.501 543.75,135.399 531.234,135.587C523.668,135.802 517.629,141.966 517.57,149.532C516.914,159.259 522.89,166.524 529.125,173.274C536.156,186.586 547.242,198.844 555.68,210.235L593.508,261.235C614.602,289.641 633.539,323.79 668.203,336.071C703.359,348.54 743.203,345.165 772.923,371.883C785.157,382.852 795.892,399.844 794.017,417.188C792.915,427.454 783.54,436.149 774.869,433.196L765.494,424.548C754.033,413.931 735.025,427.43 743.486,441.868C745.463,445.246 747.865,448.356 750.634,451.125C757.83,464.789 769.22,476.367 779.251,487.641C793.501,503.672 807.657,519.774 822.235,535.5C851.462,567.023 879.493,600.75 911.297,629.648C937.195,653.086 969.281,673.125 1005.19,671.836C1037.02,670.665 1084.52,654.961 1102.62,625.664C1112.13,616.992 1119.35,603.961 1123.71,593.133C1132.91,571.055 1133.23,546.278 1124.6,523.969L1124.6,523.97ZM1026.54,588.704C1023.04,592.231 1018.85,595.001 1014.23,596.837C1000.05,605.977 977.506,602.509 961.499,593.181C934.101,577.267 914.624,546.704 898.054,520.267C890.367,508.033 903.234,489.986 917.109,495.001C948.07,506.157 983.086,508.806 1012.9,523.126C1037.25,534.985 1047.63,567.962 1026.54,588.704L1026.54,588.704Z" style="fill:white;fill-rule:nonzero;"/>
        </g>
    </g>
</svg>
